flaticon/pins-and-locations/placeholder-24.svg

<svg xmlns="http://www.w3.org/2000/svg" width="32" height="32" viewBox="0 0 24 24">
    <path d="M 14.398438 6.398438 L 14 6.398438 C 14 6.347656 14 6.292969 14 6.238281 L 14 6 C 14 4.878906 13.121094 4 12 4 C 10.878906 4 10 4.878906 10 6 L 10 6.398438 L 9.601562 6.398438 C 8.921875 6.398438 8.398438 6.921875 8.398438 7.601562 L 8.398438 10 C 8.398438 10.679688 8.921875 11.199219 9.601562 11.199219 L 14.398438 11.199219 C 15.078125 11.199219 15.601562 10.679688 15.601562 10 L 15.601562 7.601562 C 15.601562 6.921875 15.078125 6.398438 14.398438 6.398438 Z M 10.800781 6 C 10.800781 5.320312 11.320312 4.800781 12 4.800781 C 12.679688 4.800781 13.199219 5.320312 13.199219 6 L 13.199219 6.238281 C 13.199219 6.28125 13.199219 6.359375 13.199219 6.398438 L 10.800781 6.398438 Z M 14.800781 10 C 14.800781 10.238281 14.640625 10.398438 14.398438 10.398438 L 9.601562 10.398438 C 9.359375 10.398438 9.199219 10.238281 9.199219 10 L 9.199219 7.601562 C 9.199219 7.359375 9.359375 7.199219 9.601562 7.199219 L 14.398438 7.199219 C 14.640625 7.199219 14.800781 7.359375 14.800781 7.601562 Z M 14.800781 10"/>
    <path d="M 12.398438 8 L 11.601562 8 C 11.359375 8 11.199219 8.160156 11.199219 8.398438 C 11.199219 8.640625 11.359375 8.800781 11.601562 8.800781 L 11.601562 9.199219 C 11.601562 9.441406 11.761719 9.601562 12 9.601562 C 12.238281 9.601562 12.398438 9.441406 12.398438 9.199219 L 12.398438 8.800781 C 12.640625 8.800781 12.800781 8.640625 12.800781 8.398438 C 12.800781 8.160156 12.640625 8 12.398438 8 Z M 12.398438 8"/>
    <path d="M 12 0 C 7.601562 0 4 3.601562 4 8 C 4 10.160156 4.640625 11.480469 5.558594 13.28125 C 5.679688 13.558594 5.839844 13.839844 6 14.160156 C 8.238281 18.761719 11.640625 23.761719 11.679688 23.839844 C 11.761719 23.921875 11.878906 24 12 24 C 12.121094 24 12.238281 23.921875 12.320312 23.800781 C 12.359375 23.761719 15.761719 18.761719 18 14.160156 C 18.160156 13.839844 18.28125 13.558594 18.441406 13.28125 C 19.359375 11.480469 20 10.160156 20 8 C 20 3.601562 16.398438 0 12 0 Z M 17.71875 12.878906 C 17.601562 13.199219 17.441406 13.480469 17.28125 13.800781 C 15.480469 17.480469 12.921875 21.480469 12 22.839844 C 11.078125 21.480469 8.519531 17.519531 6.71875 13.800781 C 6.558594 13.519531 6.441406 13.199219 6.28125 12.921875 C 5.398438 11.160156 4.800781 9.960938 4.800781 8 C 4.800781 4.039062 8.039062 0.800781 12 0.800781 C 15.960938 0.800781 19.199219 4.039062 19.199219 8 C 19.199219 9.960938 18.601562 11.160156 17.71875 12.878906 Z M 17.71875 12.878906"/>
</svg>

<svg xmlns="http://www.w3.org/2000/svg" width="32" height="32" viewBox="0 0 24 24">
    <path d="M14.398 6.398H14V6c0-1.121-.879-2-2-2s-2 .879-2 2v.398h-.398c-.68 0-1.204.524-1.204 1.204V10c0 .68.524 1.2 1.204 1.2h4.796c.68 0 1.204-.52 1.204-1.2V7.602c0-.68-.524-1.204-1.204-1.204zM10.801 6c0-.68.52-1.2 1.199-1.2.68 0 1.2.52 1.2 1.2v.398h-2.4zm4 4c0 .238-.16.398-.403.398H9.602c-.243 0-.403-.16-.403-.398V7.602c0-.243.16-.403.403-.403h4.796c.243 0 .403.16.403.403zm0 0"/>
    <path d="M12.398 8h-.796c-.243 0-.403.16-.403.398 0 .243.16.403.403.403v.398c0 .242.16.403.398.403.238 0 .398-.16.398-.403v-.398c.243 0 .403-.16.403-.403 0-.238-.16-.398-.403-.398zm0 0"/>
    <path d="M12 0C7.602 0 4 3.602 4 8c0 2.16.64 3.48 1.559 5.281.12.278.28.559.441.88 2.238 4.6 5.64 9.6 5.68 9.679.082.082.199.16.32.16s.238-.078.32-.2c.04-.038 3.442-5.038 5.68-9.64.16-.32.281-.601.441-.879C19.36 11.481 20 10.161 20 8c0-4.398-3.602-8-8-8zm5.719 12.879c-.117.32-.278.601-.438.922-1.8 3.68-4.36 7.68-5.281 9.039-.922-1.36-3.48-5.32-5.281-9.04-.16-.28-.278-.6-.438-.878C5.398 11.16 4.801 9.96 4.801 8 4.8 4.04 8.039.8 12 .8c3.96 0 7.2 3.24 7.2 7.2 0 1.96-.598 3.16-1.481 4.879zm0 0"/>
</svg>
